assets/svg/my_doc_id_info.svg

<svg xmlns="http://www.w3.org/2000/svg" width="50" height="50" fill="none" viewBox="0 0 50 50"><path fill="#3792cf" d="M34.4.28H2.1C1.09.28.28 1.09.28 2.1v45.79c0 1.01.81 1.82 1.82 1.82h32.3c1.01 0 1.83-.81 1.83-1.82V2.1c0-1.01-.82-1.82-1.83-1.82"/><circle cx="18.258" cy="18.352" r="11.517" fill="#fee36f"/><ellipse cx="18.258" cy="18.352" fill="#fee36f" rx="5.683" ry="11.517"/><path fill="#fee36f" d="M10.43 9.9c2.05 1.9 4.8 3.07 7.82 3.07s5.77-1.17 7.83-3.07a11.47 11.47 0 0 0-7.83-3.07c-3.02 0-5.77 1.16-7.82 3.07M10.43 26.8a11.43 11.43 0 0 1 7.82-3.07c3.02 0 5.77 1.16 7.83 3.07a11.5 11.5 0 0 1-7.83 3.06c-3.02 0-5.77-1.16-7.82-3.06"/><path fill="#f68c43" d="M47.79 12.64H36.23v24.71h11.56c1.06 0 1.92-.85 1.92-1.91V14.55c0-1.06-.86-1.91-1.92-1.91"/><path fill="#6ac9cc" d="M36.23 37.35v4.31h7.49c1.06 0 1.92-.86 1.92-1.92v-2.39z"/><path fill="#136296" d="M34.4 50H2.1C.94 50 0 49.05 0 47.89V2.1C0 .94.94 0 2.1 0h32.3c1.17 0 2.11.94 2.11 2.1v45.79c0 1.16-.94 2.11-2.11 2.11M2.1.56C1.25.56.56 1.25.56 2.1v45.79c0 .85.69 1.54 1.54 1.54h32.3c.86 0 1.55-.69 1.55-1.54V2.1c0-.85-.69-1.54-1.55-1.54z"/><path fill="#136296" d="M18.25 30.14c-6.5 0-11.79-5.29-11.79-11.79 0-6.51 5.29-11.8 11.79-11.8 6.51 0 11.8 5.29 11.8 11.8 0 6.5-5.29 11.79-11.8 11.79m0-23.03c-6.19 0-11.23 5.04-11.23 11.24 0 6.19 5.04 11.23 11.23 11.23 6.2 0 11.24-5.04 11.24-11.23 0-6.2-5.04-11.24-11.24-11.24"/><path fill="#136296" d="M29.77 18.63H6.74a.28.28 0 0 1-.28-.28c0-.16.12-.28.28-.28h23.03c.16 0 .28.12.28.28 0 .15-.12.28-.28.28"/><path fill="#136296" d="M18.25 30.14a.28.28 0 0 1-.28-.28V6.83c0-.16.13-.28.28-.28.16 0 .28.12.28.28v23.03c0 .16-.12.28-.28.28"/><path fill="#136296" d="M18.25 30.14c-3.29 0-5.96-5.29-5.96-11.79 0-6.51 2.67-11.8 5.96-11.8s5.97 5.29 5.97 11.8c0 6.5-2.68 11.79-5.97 11.79m0-23.03c-2.98 0-5.4 5.04-5.4 11.24 0 6.19 2.42 11.23 5.4 11.23s5.41-5.04 5.41-11.23c0-6.2-2.43-11.24-5.41-11.24"/><path fill="#136296" d="M18.25 13.25c-2.98 0-5.82-1.12-8.01-3.15a.25.25 0 0 1-.09-.2q0-.12.09-.21c2.19-2.02 5.03-3.14 8.01-3.14s5.83 1.12 8.02 3.14a.29.29 0 0 1 0 .42 11.8 11.8 0 0 1-8.02 3.14m-7.4-3.35c2.05 1.8 4.67 2.79 7.4 2.79 2.74 0 5.36-.99 7.41-2.79-2.05-1.8-4.67-2.79-7.41-2.79-2.73 0-5.35.99-7.4 2.79M18.25 30.14c-2.98 0-5.82-1.11-8.01-3.14a.27.27 0 0 1-.09-.21c0-.07.03-.15.09-.2 2.19-2.03 5.03-3.15 8.01-3.15s5.83 1.12 8.02 3.15c.06.05.09.13.09.2 0 .08-.03.16-.09.21a11.76 11.76 0 0 1-8.02 3.14m-7.4-3.34c2.05 1.79 4.67 2.78 7.4 2.78 2.74 0 5.36-.99 7.41-2.78-2.05-1.8-4.67-2.79-7.41-2.79-2.73 0-5.35.99-7.4 2.79M29.77 35.76H6.74c-.16 0-.28-.12-.28-.28 0-.15.12-.28.28-.28h23.03c.16 0 .28.13.28.28 0 .16-.12.28-.28.28"/><path fill="#fff" d="M7.72 41.38h-.98c-.16 0-.29-.13-.29-.28 0-.16.13-.28.29-.28h.98c.15 0 .28.12.28.28 0 .15-.13.28-.28.28M26.87 41.38h-1.91a.28.28 0 0 1-.28-.28c0-.16.12-.28.28-.28h1.91c.16 0 .28.12.28.28 0 .15-.12.28-.28.28m-3.83 0h-1.91a.28.28 0 0 1-.28-.28c0-.16.12-.28.28-.28h1.91c.16 0 .28.12.28.28 0 .15-.12.28-.28.28m-3.83 0H17.3c-.16 0-.29-.13-.29-.28 0-.16.13-.28.29-.28h1.91c.16 0 .28.12.28.28 0 .15-.12.28-.28.28m-3.83 0h-1.91c-.16 0-.29-.13-.29-.28 0-.16.13-.28.29-.28h1.91c.16 0 .28.12.28.28 0 .15-.12.28-.28.28m-3.83 0H9.63c-.15 0-.28-.13-.28-.28 0-.16.13-.28.28-.28h1.92a.28.28 0 1 1 0 .56M29.77 41.38h-.98a.28.28 0 0 1-.28-.28c0-.16.12-.28.28-.28h.98c.16 0 .28.12.28.28 0 .15-.12.28-.28.28M43.72 20.13h-7.49c-.15 0-.28-.13-.28-.28 0-.16.13-.29.28-.29h7.49c.16 0 .28.13.28.29 0 .15-.12.28-.28.28M46.72 17.22H36.23a.28.28 0 0 1-.28-.28c0-.15.13-.28.28-.28h10.49c.15 0 .28.13.28.28 0 .16-.13.28-.28.28M46.72 29.58H36.23a.28.28 0 0 1-.28-.28c0-.15.13-.28.28-.28h10.49c.15 0 .28.13.28.28 0 .16-.13.28-.28.28M46.72 32.2H36.23a.28.28 0 0 1-.28-.28c0-.15.13-.28.28-.28h10.49c.15 0 .28.13.28.28 0 .16-.13.28-.28.28"/><path fill="#136296" d="M43.72 41.94h-7.49a.28.28 0 0 1-.28-.28v-4.31c0-.15.13-.28.28-.28h9.41c.16 0 .28.13.28.28v2.39a2.2 2.2 0 0 1-2.2 2.2m-7.21-.56h7.21c.9 0 1.64-.73 1.64-1.64v-2.1h-8.85z"/><path fill="#136296" d="M47.79 37.64H36.23c-.15 0-.28-.13-.28-.29V12.64c0-.16.13-.29.28-.29h11.56c1.22 0 2.21.99 2.21 2.2v20.88a2.217 2.217 0 0 1-2.21 2.21m-11.28-.57h11.28c.91 0 1.64-.73 1.64-1.63V14.55c0-.9-.73-1.63-1.64-1.63H36.51z"/></svg>

<svg width="50.000000" height="50.000004" viewBox="0 0 50 50" fill="none" xmlns="http://www.w3.org/2000/svg" xmlns:xlink="http://www.w3.org/1999/xlink">
	<desc>
			Created with Pixso.
	</desc>
	<defs/>
	<path id="path" d="M34.4 0.28L2.1 0.28C1.09 0.28 0.28 1.09 0.28 2.1L0.28 47.89C0.28 48.9 1.09 49.71 2.1 49.71L34.4 49.71C35.41 49.71 36.23 48.9 36.23 47.89L36.23 2.1C36.23 1.09 35.41 0.28 34.4 0.28Z" fill="#3792CF" fill-opacity="1.000000" fill-rule="nonzero"/>
	<ellipse id="circle" cx="18.258131" cy="18.351780" rx="11.516539" ry="11.517434" fill="#FEE36F" fill-opacity="1.000000"/>
	<ellipse id="ellipse" cx="18.258129" cy="18.351780" rx="5.683270" ry="11.516879" fill="#FEE36F" fill-opacity="1.000000"/>
	<path id="path" d="M10.43 9.9C12.48 11.8 15.23 12.97 18.25 12.97C21.27 12.97 24.02 11.8 26.08 9.9C24.02 7.99 21.27 6.83 18.25 6.83C15.23 6.83 12.48 7.99 10.43 9.9Z" fill="#FEE36F" fill-opacity="1.000000" fill-rule="nonzero"/>
	<path id="path" d="M10.43 26.8C12.48 24.89 15.23 23.73 18.25 23.73C21.27 23.73 24.02 24.89 26.08 26.8C24.02 28.7 21.27 29.86 18.25 29.86C15.23 29.86 12.48 28.7 10.43 26.8Z" fill="#FEE36F" fill-opacity="1.000000" fill-rule="nonzero"/>
	<path id="path" d="M47.79 12.64L36.23 12.64L36.23 37.35L47.79 37.35C48.85 37.35 49.71 36.5 49.71 35.44L49.71 14.55C49.71 13.49 48.85 12.64 47.79 12.64Z" fill="#F68C43" fill-opacity="1.000000" fill-rule="nonzero"/>
	<path id="path" d="M36.23 37.35L36.23 41.66L43.72 41.66C44.78 41.66 45.64 40.8 45.64 39.74L45.64 37.35L36.23 37.35Z" fill="#6AC9CC" fill-opacity="1.000000" fill-rule="nonzero"/>
	<path id="path" d="M34.4 50L2.1 50C0.94 50 0 49.05 0 47.89L0 2.1C0 0.94 0.94 0 2.1 0L34.4 0C35.57 0 36.51 0.94 36.51 2.1L36.51 47.89C36.51 49.05 35.57 50 34.4 50ZM2.1 0.56C1.25 0.56 0.56 1.25 0.56 2.1L0.56 47.89C0.56 48.74 1.25 49.43 2.1 49.43L34.4 49.43C35.26 49.43 35.95 48.74 35.95 47.89L35.95 2.1C35.95 1.25 35.26 0.56 34.4 0.56L2.1 0.56Z" fill="#136296" fill-opacity="1.000000" fill-rule="nonzero"/>
	<path id="path" d="M18.25 30.14C11.75 30.14 6.46 24.85 6.46 18.35C6.46 11.84 11.75 6.55 18.25 6.55C24.76 6.55 30.05 11.84 30.05 18.35C30.05 24.85 24.76 30.14 18.25 30.14ZM18.25 7.11C12.06 7.11 7.02 12.15 7.02 18.35C7.02 24.54 12.06 29.58 18.25 29.58C24.45 29.58 29.49 24.54 29.49 18.35C29.49 12.15 24.45 7.11 18.25 7.11Z" fill="#136296" fill-opacity="1.000000" fill-rule="nonzero"/>
	<path id="path" d="M29.77 18.63L6.74 18.63C6.58 18.63 6.46 18.5 6.46 18.35C6.46 18.19 6.58 18.07 6.74 18.07L29.77 18.07C29.93 18.07 30.05 18.19 30.05 18.35C30.05 18.5 29.93 18.63 29.77 18.63Z" fill="#136296" fill-opacity="1.000000" fill-rule="nonzero"/>
	<path id="path" d="M18.25 30.14C18.1 30.14 17.97 30.02 17.97 29.86L17.97 6.83C17.97 6.67 18.1 6.55 18.25 6.55C18.41 6.55 18.53 6.67 18.53 6.83L18.53 29.86C18.53 30.02 18.41 30.14 18.25 30.14Z" fill="#136296" fill-opacity="1.000000" fill-rule="nonzero"/>
	<path id="path" d="M18.25 30.14C14.96 30.14 12.29 24.85 12.29 18.35C12.29 11.84 14.96 6.55 18.25 6.55C21.54 6.55 24.22 11.84 24.22 18.35C24.22 24.85 21.54 30.14 18.25 30.14ZM18.25 7.11C15.27 7.11 12.85 12.15 12.85 18.35C12.85 24.54 15.27 29.58 18.25 29.58C21.23 29.58 23.66 24.54 23.66 18.35C23.66 12.15 21.23 7.11 18.25 7.11Z" fill="#136296" fill-opacity="1.000000" fill-rule="nonzero"/>
	<path id="path" d="M18.25 13.25C15.27 13.25 12.43 12.13 10.24 10.1C10.18 10.05 10.15 9.98 10.15 9.9C10.15 9.82 10.18 9.75 10.24 9.69C12.43 7.67 15.27 6.55 18.25 6.55C21.23 6.55 24.08 7.67 26.27 9.69C26.33 9.75 26.36 9.82 26.36 9.9C26.36 9.98 26.33 10.05 26.27 10.11C24.08 12.13 21.23 13.25 18.25 13.25ZM10.85 9.9C12.9 11.7 15.52 12.69 18.25 12.69C20.99 12.69 23.61 11.7 25.66 9.9C23.61 8.1 20.99 7.11 18.25 7.11C15.52 7.11 12.9 8.1 10.85 9.9Z" fill="#136296" fill-opacity="1.000000" fill-rule="nonzero"/>
	<path id="path" d="M18.25 30.14C15.27 30.14 12.43 29.03 10.24 27C10.18 26.95 10.15 26.87 10.15 26.79C10.15 26.72 10.18 26.64 10.24 26.59C12.43 24.56 15.27 23.44 18.25 23.44C21.23 23.44 24.08 24.56 26.27 26.59C26.33 26.64 26.36 26.72 26.36 26.79C26.36 26.87 26.33 26.95 26.27 27C24.08 29.03 21.23 30.14 18.25 30.14ZM10.85 26.8C12.9 28.59 15.52 29.58 18.25 29.58C20.99 29.58 23.61 28.59 25.66 26.8C23.61 25 20.99 24.01 18.25 24.01C15.52 24.01 12.9 25 10.85 26.8Z" fill="#136296" fill-opacity="1.000000" fill-rule="nonzero"/>
	<path id="path" d="M29.77 35.76L6.74 35.76C6.58 35.76 6.46 35.64 6.46 35.48C6.46 35.33 6.58 35.2 6.74 35.2L29.77 35.2C29.93 35.2 30.05 35.33 30.05 35.48C30.05 35.64 29.93 35.76 29.77 35.76Z" fill="#136296" fill-opacity="1.000000" fill-rule="nonzero"/>
	<path id="path" d="M7.72 41.38L6.74 41.38C6.58 41.38 6.45 41.25 6.45 41.1C6.45 40.94 6.58 40.82 6.74 40.82L7.72 40.82C7.87 40.82 8 40.94 8 41.1C8 41.25 7.87 41.38 7.72 41.38Z" fill="#FFFFFF" fill-opacity="1.000000" fill-rule="nonzero"/>
	<path id="path" d="M26.87 41.38L24.96 41.38C24.8 41.38 24.68 41.25 24.68 41.1C24.68 40.94 24.8 40.82 24.96 40.82L26.87 40.82C27.03 40.82 27.15 40.94 27.15 41.1C27.15 41.25 27.03 41.38 26.87 41.38ZM23.04 41.38L21.13 41.38C20.97 41.38 20.85 41.25 20.85 41.1C20.85 40.94 20.97 40.82 21.13 40.82L23.04 40.82C23.2 40.82 23.32 40.94 23.32 41.1C23.32 41.25 23.2 41.38 23.04 41.38ZM19.21 41.38L17.3 41.38C17.14 41.38 17.01 41.25 17.01 41.1C17.01 40.94 17.14 40.82 17.3 40.82L19.21 40.82C19.37 40.82 19.49 40.94 19.49 41.1C19.49 41.25 19.37 41.38 19.21 41.38ZM15.38 41.38L13.47 41.38C13.31 41.38 13.18 41.25 13.18 41.1C13.18 40.94 13.31 40.82 13.47 40.82L15.38 40.82C15.54 40.82 15.66 40.94 15.66 41.1C15.66 41.25 15.54 41.38 15.38 41.38ZM11.55 41.38L9.63 41.38C9.48 41.38 9.35 41.25 9.35 41.1C9.35 40.94 9.48 40.82 9.63 40.82L11.55 40.82C11.7 40.82 11.83 40.94 11.83 41.1C11.83 41.25 11.71 41.38 11.55 41.38Z" fill="#FFFFFF" fill-opacity="1.000000" fill-rule="nonzero"/>
	<path id="path" d="M29.77 41.38L28.79 41.38C28.63 41.38 28.51 41.25 28.51 41.1C28.51 40.94 28.63 40.82 28.79 40.82L29.77 40.82C29.93 40.82 30.05 40.94 30.05 41.1C30.05 41.25 29.93 41.38 29.77 41.38Z" fill="#FFFFFF" fill-opacity="1.000000" fill-rule="nonzero"/>
	<path id="path" d="M43.72 20.13L36.23 20.13C36.08 20.13 35.95 20 35.95 19.85C35.95 19.69 36.08 19.56 36.23 19.56L43.72 19.56C43.88 19.56 44 19.69 44 19.85C44 20 43.88 20.13 43.72 20.13Z" fill="#FFFFFF" fill-opacity="1.000000" fill-rule="nonzero"/>
	<path id="path" d="M46.72 17.22L36.23 17.22C36.08 17.22 35.95 17.1 35.95 16.94C35.95 16.79 36.08 16.66 36.23 16.66L46.72 16.66C46.87 16.66 47 16.79 47 16.94C47 17.1 46.87 17.22 46.72 17.22Z" fill="#FFFFFF" fill-opacity="1.000000" fill-rule="nonzero"/>
	<path id="path" d="M46.72 29.58L36.23 29.58C36.08 29.58 35.95 29.46 35.95 29.3C35.95 29.15 36.08 29.02 36.23 29.02L46.72 29.02C46.87 29.02 47 29.15 47 29.3C47 29.46 46.87 29.58 46.72 29.58Z" fill="#FFFFFF" fill-opacity="1.000000" fill-rule="nonzero"/>
	<path id="path" d="M46.72 32.2L36.23 32.2C36.08 32.2 35.95 32.08 35.95 31.92C35.95 31.77 36.08 31.64 36.23 31.64L46.72 31.64C46.87 31.64 47 31.77 47 31.92C47 32.08 46.87 32.2 46.72 32.2Z" fill="#FFFFFF" fill-opacity="1.000000" fill-rule="nonzero"/>
	<path id="path" d="M43.72 41.94L36.23 41.94C36.08 41.94 35.95 41.82 35.95 41.66L35.95 37.35C35.95 37.2 36.08 37.07 36.23 37.07L45.64 37.07C45.8 37.07 45.92 37.2 45.92 37.35L45.92 39.74C45.92 40.96 44.93 41.94 43.72 41.94ZM36.51 41.38L43.72 41.38C44.62 41.38 45.36 40.65 45.36 39.74L45.36 37.64L36.51 37.64L36.51 41.38Z" fill="#136296" fill-opacity="1.000000" fill-rule="nonzero"/>
	<path id="path" d="M47.79 37.64L36.23 37.64C36.08 37.64 35.95 37.51 35.95 37.35L35.95 12.64C35.95 12.48 36.08 12.35 36.23 12.35L47.79 12.35C49.01 12.35 50 13.34 50 14.55L50 35.43C49.99 36.65 49.01 37.64 47.79 37.64ZM36.51 37.07L47.79 37.07C48.7 37.07 49.43 36.34 49.43 35.44L49.43 14.55C49.43 13.65 48.7 12.92 47.79 12.92L36.51 12.92L36.51 37.07Z" fill="#136296" fill-opacity="1.000000" fill-rule="nonzero"/>
</svg>
